X: 39631
T: Temple Hill
R: reel
M: 4/4
K: Edorian
B,E (3EEE BF AF|BF AF DE FD|B,E (3EEE BA Bc|dB AF FE E2:|
e3 g f2 ed|B2 AF DE FA|e3 g f2 ed|B2 AF FE E2:|
G3 E F3 D|EG FE DB, (3B,B,B,|GE (3EEE FD (3DDD|EG FD E3F|
G3 E F3 D|EG FE DB, (3B,B,B,|DF EG FA dB|AF DF E4|

